X:1
T:Bruce's Address
M:C
L:1/8
Q:80
C:
S:Slow March
K:HP
|: {g}d3/4B/4 | \
{g}A3/2{d}B/2{g}A3/2{g}G/2{d}A3/2{g}B/2{Gdc}d3/2c/2 | \
{g}B3/2c/2{gBd}B3/2{G}A/2{g}B3/2c/2{Gdc}d3/2e/2 |
{g}f3/2a/2e3/2f/2{Gdc}d3/2e/2{g}f3/2e/2 | \
{g}d/2B3/2{gBd}B3/2{G}A/2{g}A2{GAG}A :| \
e |
{g}f3/2{e}f/2{g}f3/2e/2{g}f3/2g/2{ag}a3/2f/2 | \
{g}e3/2{A}e/2{g}e3/2f/2{g}e3/2f/2{gf}g2 | \
{ag}a3/2f/2{g}e3/2f/2{Gdc}d3/2e/2{g}f3/2e/2 |
{g}d/2B3/2{gBd}B3/2{G}A/2{g}A2{GAG}A :|
